svg/NEPAnode-EnergyInfrastructure/Transmission2.svg

<?xml version="1.0" encoding="UTF-8" standalone="no"?>
<!-- Created with Inkscape (http://www.inkscape.org/) -->

<svg
   xmlns:osb="http://www.openswatchbook.org/uri/2009/osb"
   xmlns:dc="http://purl.org/dc/elements/1.1/"
   xmlns:cc="http://creativecommons.org/ns#"
   xmlns:rdf="http://www.w3.org/1999/02/22-rdf-syntax-ns#"
   xmlns:svg="http://www.w3.org/2000/svg"
   xmlns="http://www.w3.org/2000/svg"
   xmlns:xlink="http://www.w3.org/1999/xlink"
   xmlns:sodipodi="http://sodipodi.sourceforge.net/DTD/sodipodi-0.dtd"
   xmlns:inkscape="http://www.inkscape.org/namespaces/inkscape"
   version="1.0"
   width="580"
   height="580"
   id="svg2"
   sodipodi:version="0.32"
   inkscape:version="0.48.3.1 r9886"
   sodipodi:docname="tower.svg"
   inkscape:output_extension="org.inkscape.output.svg.inkscape">
  <metadata
     id="metadata10">
    <rdf:RDF>
      <cc:Work
         rdf:about="">
        <dc:format>image/svg+xml</dc:format>
        <dc:type
           rdf:resource="http://purl.org/dc/dcmitype/StillImage" />
        <cc:license
           rdf:resource="http://web.resource.org/cc/PublicDomain" />
        <dc:language>en</dc:language>
        <dc:title></dc:title>
      </cc:Work>
    </rdf:RDF>
  </metadata>
  <sodipodi:namedview
     inkscape:window-height="711"
     inkscape:window-width="1014"
     inkscape:pageshadow="2"
     inkscape:pageopacity="0.0"
     guidetolerance="10.0"
     gridtolerance="10.0"
     objecttolerance="10.0"
     borderopacity="1.0"
     bordercolor="#666666"
     pagecolor="#ffffff"
     id="base"
     showgrid="false"
     inkscape:zoom="0.70710678"
     inkscape:cx="243.93811"
     inkscape:cy="316.55701"
     inkscape:window-x="239"
     inkscape:window-y="24"
     inkscape:current-layer="svg2"
     inkscape:window-maximized="0" />
  <defs
     id="defs4">
    <linearGradient
       inkscape:collect="always"
       id="linearGradient5796">
      <stop
         style="stop-color:#ffff00;stop-opacity:1;"
         offset="0"
         id="stop5798" />
      <stop
         style="stop-color:#ffff00;stop-opacity:0;"
         offset="1"
         id="stop5800" />
    </linearGradient>
    <linearGradient
       id="linearGradient5748"
       osb:paint="solid">
      <stop
         style="stop-color:#ffff00;stop-opacity:1;"
         offset="0"
         id="stop5750" />
    </linearGradient>
    <linearGradient
       id="linearGradient3822">
      <stop
         style="stop-color:#333333;stop-opacity:1;"
         offset="0"
         id="stop3824" />
      <stop
         id="stop3842"
         offset="0.25"
         style="stop-color:#333333;stop-opacity:0.74901961;" />
      <stop
         id="stop3840"
         offset="0.5"
         style="stop-color:#333333;stop-opacity:0.49803922;" />
      <stop
         style="stop-color:#333333;stop-opacity:0;"
         offset="1"
         id="stop3826" />
    </linearGradient>
    <linearGradient
       id="linearGradient3806"
       osb:paint="solid">
      <stop
         style="stop-color:#333333;stop-opacity:1;"
         offset="0"
         id="stop3808" />
    </linearGradient>
    <inkscape:perspective
       sodipodi:type="inkscape:persp3d"
       inkscape:vp_x="0 : 290 : 1"
       inkscape:vp_y="0 : 1000 : 0"
       inkscape:vp_z="580 : 290 : 1"
       inkscape:persp3d-origin="290 : 193.33333 : 1"
       id="perspective12" />
    <style
       type="text/css"
       id="style6">
   
    .fil0 {fill:#EF7900}
   
  </style>
    <inkscape:perspective
       id="perspective6807"
       inkscape:persp3d-origin="29.116032 : 19.410688 : 1"
       inkscape:vp_z="58.232063 : 29.116032 : 1"
       inkscape:vp_y="0 : 1000 : 0"
       inkscape:vp_x="0 : 29.116032 : 1"
       sodipodi:type="inkscape:persp3d" />
    <inkscape:perspective
       id="perspective6954"
       inkscape:persp3d-origin="290 : 193.33333 : 1"
       inkscape:vp_z="580 : 290 : 1"
       inkscape:vp_y="0 : 1000 : 0"
       inkscape:vp_x="0 : 290 : 1"
       sodipodi:type="inkscape:persp3d" />
    <inkscape:perspective
       id="perspective2541"
       inkscape:persp3d-origin="240 : 160 : 1"
       inkscape:vp_z="480 : 240 : 1"
       inkscape:vp_y="0 : 1000 : 0"
       inkscape:vp_x="0 : 240 : 1"
       sodipodi:type="inkscape:persp3d" />
    <inkscape:perspective
       id="perspective2750"
       inkscape:persp3d-origin="215 : 143.33333 : 1"
       inkscape:vp_z="430 : 215 : 1"
       inkscape:vp_y="0 : 1000 : 0"
       inkscape:vp_x="0 : 215 : 1"
       sodipodi:type="inkscape:persp3d" />
    <inkscape:perspective
       id="perspective3730"
       inkscape:persp3d-origin="88.929146 : 101.19778 : 1"
       inkscape:vp_z="177.85829 : 151.79668 : 1"
       inkscape:vp_y="0 : 1000 : 0"
       inkscape:vp_x="0 : 151.79668 : 1"
       sodipodi:type="inkscape:persp3d" />
    <filter
       inkscape:collect="always"
       id="filter4186"
       x="-0.073455532"
       width="1.1469111"
       y="-0.51549421"
       height="2.0309884">
      <feGaussianBlur
         inkscape:collect="always"
         stdDeviation="7.9209879"
         id="feGaussianBlur4188" />
    </filter>
    <filter
       inkscape:collect="always"
       id="filter4190"
       x="-0.073455532"
       width="1.1469111"
       y="-0.51549421"
       height="2.0309884">
      <feGaussianBlur
         inkscape:collect="always"
         stdDeviation="7.9209879"
         id="feGaussianBlur4192" />
    </filter>
    <filter
       inkscape:collect="always"
       id="filter4194"
       x="-0.073455532"
       width="1.1469111"
       y="-0.51549421"
       height="2.0309884">
      <feGaussianBlur
         inkscape:collect="always"
         stdDeviation="7.9209879"
         id="feGaussianBlur4196" />
    </filter>
    <filter
       inkscape:collect="always"
       id="filter4198"
       x="-0.073455532"
       width="1.1469111"
       y="-0.51549421"
       height="2.0309884">
      <feGaussianBlur
         inkscape:collect="always"
         stdDeviation="7.9209879"
         id="feGaussianBlur4200" />
    </filter>
    <filter
       inkscape:collect="always"
       id="filter4202"
       x="-0.073455532"
       width="1.1469111"
       y="-0.51549421"
       height="2.0309884">
      <feGaussianBlur
         inkscape:collect="always"
         stdDeviation="7.9209879"
         id="feGaussianBlur4204" />
    </filter>
    <filter
       inkscape:collect="always"
       id="filter4206"
       x="-0.073455532"
       width="1.1469111"
       y="-0.51549421"
       height="2.0309884">
      <feGaussianBlur
         inkscape:collect="always"
         stdDeviation="7.9209879"
         id="feGaussianBlur4208" />
    </filter>
    <linearGradient
       inkscape:collect="always"
       xlink:href="#linearGradient5796"
       id="linearGradient5818"
       x1="281.97275"
       y1="189.83176"
       x2="560.02429"
       y2="189.83176"
       gradientUnits="userSpaceOnUse" />
    <linearGradient
       inkscape:collect="always"
       xlink:href="#linearGradient5796"
       id="linearGradient5820"
       x1="25.972759"
       y1="187.83176"
       x2="304.02429"
       y2="187.83176"
       gradientUnits="userSpaceOnUse" />
    <linearGradient
       inkscape:collect="always"
       xlink:href="#linearGradient5796"
       id="linearGradient5822"
       x1="281.97275"
       y1="149.83176"
       x2="560.02429"
       y2="149.83176"
       gradientUnits="userSpaceOnUse" />
    <linearGradient
       inkscape:collect="always"
       xlink:href="#linearGradient5796"
       id="linearGradient5824"
       x1="25.972759"
       y1="147.83176"
       x2="304.02429"
       y2="147.83176"
       gradientUnits="userSpaceOnUse" />
    <linearGradient
       inkscape:collect="always"
       xlink:href="#linearGradient5796"
       id="linearGradient5826"
       x1="281.97275"
       y1="109.83176"
       x2="560.02429"
       y2="109.83176"
       gradientUnits="userSpaceOnUse" />
    <linearGradient
       inkscape:collect="always"
       xlink:href="#linearGradient5796"
       id="linearGradient5828"
       x1="25.972759"
       y1="107.83176"
       x2="304.02429"
       y2="107.83176"
       gradientUnits="userSpaceOnUse" />
    <linearGradient
       inkscape:collect="always"
       xlink:href="#linearGradient5796"
       id="linearGradient5830"
       x1="72.300293"
       y1="462.79279"
       x2="92.217995"
       y2="462.79279"
       gradientUnits="userSpaceOnUse" />
    <linearGradient
       inkscape:collect="always"
       xlink:href="#linearGradient5796"
       id="linearGradient5832"
       x1="67.912994"
       y1="462.79279"
       x2="87.830704"
       y2="462.79279"
       gradientUnits="userSpaceOnUse" />
  </defs>
  <g
     id="g1327" />
  <path
     d="m 80.048361,411.96358 c 0,0.0848 0,-10.89558 0,-10.81078 0,6.73125 -3.973744,76.42227 -29.300692,114.86076"
     id="path1686"
     sodipodi:nodetypes="ccc"
     style="fill:none;stroke:#000000;stroke-width:5.13912106;stroke-linecap:round;stroke-linejoin:round;stroke-miterlimit:4;stroke-opacity:1"
     inkscape:connector-curvature="0" />
  <path
     d="m 79.977215,411.83639 c 0,0.0848 0,-10.89558 0,-10.81078 0,6.73124 3.973744,76.42227 29.300685,114.86078"
     id="path2308"
     sodipodi:nodetypes="ccc"
     style="fill:none;stroke:#000000;stroke-width:5.13912106;stroke-linecap:round;stroke-linejoin:round;stroke-miterlimit:4;stroke-opacity:1"
     inkscape:connector-curvature="0" />
  <path
     id="path3758"
     d="M 86.205349,454.02186 69.538348,471.56372"
     style="fill:url(#linearGradient5832);stroke:#000000;stroke-width:3.25070214000000002;stroke-linecap:round;stroke-linejoin:miter;stroke-miterlimit:4;stroke-opacity:1;stroke-dasharray:none;fill-opacity:1"
     inkscape:connector-curvature="0" />
  <path
     style="fill:url(#linearGradient5830);stroke:#000000;stroke-width:3.25070214000000002;stroke-linecap:round;stroke-linejoin:miter;stroke-miterlimit:4;stroke-opacity:1;stroke-dasharray:none;fill-opacity:1"
     d="m 73.925646,454.02186 16.667001,17.54186"
     id="path3768"
     inkscape:connector-curvature="0" />
  <path
     style="fill:none;stroke:#000000;stroke-width:4.00086403;stroke-linecap:round;stroke-linejoin:miter;stroke-miterlimit:4;stroke-opacity:1;stroke-dasharray:none"
     d="m 72.828753,471.51381 26.089315,27.45876"
     id="path3770"
     inkscape:connector-curvature="0" />
  <path
     id="path3772"
     d="M 87.218606,471.51381 61.12929,498.97257"
     style="fill:none;stroke:#000000;stroke-width:4.00086403;stroke-linecap:round;stroke-linejoin:miter;stroke-miterlimit:4;stroke-opacity:1;stroke-dasharray:none"
     inkscape:connector-curvature="0" />
  <path
     id="path3804"
     d="M 294.39906,90.807 C 167.11984,171.41717 35.59798,89.39278 35.59798,89.39278"
     style="opacity:0.93827156000000000;fill:url(#linearGradient5828);fill-opacity:1;fill-rule:evenodd;stroke:#000000;stroke-width:10;stroke-linecap:butt;stroke-linejoin:miter;stroke-miterlimit:4;stroke-opacity:1;stroke-dasharray:none;filter:url(#filter4186)"
     inkscape:connector-curvature="0"
     transform="matrix(0.2432999,0,0,0.27662948,8.8728693,375.2818)" />
  <path
     style="opacity:0.93827156000000000;fill:url(#linearGradient5826);fill-opacity:1;fill-rule:evenodd;stroke:#000000;stroke-width:10;stroke-linecap:butt;stroke-linejoin:miter;stroke-miterlimit:4;stroke-opacity:1;stroke-dasharray:none;filter:url(#filter4202)"
     d="M 550.39906,92.807 C 423.11984,173.41717 291.59798,91.39278 291.59798,91.39278"
     id="path3806"
     inkscape:connector-curvature="0"
     transform="matrix(0.2432999,0,0,0.27662948,8.8728693,375.2818)" />
  <path
     style="opacity:0.93827156000000000;fill:url(#linearGradient5824);fill-opacity:1;fill-rule:evenodd;stroke:#000000;stroke-width:10;stroke-linecap:butt;stroke-linejoin:miter;stroke-miterlimit:4;stroke-opacity:1;stroke-dasharray:none;filter:url(#filter4190)"
     d="M 294.39906,130.807 C 167.11984,211.41717 35.59798,129.39278 35.59798,129.39278"
     id="path3812"
     inkscape:connector-curvature="0"
     transform="matrix(0.2432999,0,0,0.27662948,8.8728693,375.2818)" />
  <path
     id="path3814"
     d="M 550.39906,132.807 C 423.11984,213.41717 291.59798,131.39278 291.59798,131.39278"
     style="opacity:0.93827156000000000;fill:url(#linearGradient5822);fill-opacity:1;fill-rule:evenodd;stroke:#000000;stroke-width:10;stroke-linecap:butt;stroke-linejoin:miter;stroke-miterlimit:4;stroke-opacity:1;stroke-dasharray:none;filter:url(#filter4206)"
     inkscape:connector-curvature="0"
     transform="matrix(0.2432999,0,0,0.27662948,8.8728693,375.2818)" />
  <path
     id="path3816"
     d="M 294.39906,170.807 C 167.11984,251.41717 35.59798,169.39278 35.59798,169.39278"
     style="opacity:0.93827156000000000;fill:url(#linearGradient5820);fill-opacity:1;fill-rule:evenodd;stroke:#000000;stroke-width:10;stroke-linecap:butt;stroke-linejoin:miter;stroke-miterlimit:4;stroke-opacity:1;stroke-dasharray:none;filter:url(#filter4194)"
     inkscape:connector-curvature="0"
     transform="matrix(0.2432999,0,0,0.27662948,8.8728693,375.2818)" />
  <path
     style="opacity:0.93827156000000000;fill:url(#linearGradient5818);fill-opacity:1;fill-rule:evenodd;stroke:#000000;stroke-width:10;stroke-linecap:butt;stroke-linejoin:miter;stroke-miterlimit:4;stroke-opacity:1;stroke-dasharray:none;filter:url(#filter4198)"
     d="M 550.39906,172.807 C 423.11984,253.41717 291.59798,171.39278 291.59798,171.39278"
     id="path3818"
     inkscape:connector-curvature="0"
     transform="matrix(0.2432999,0,0,0.27662948,8.8728693,375.2818)" />
  <path
     sodipodi:nodetypes="cc"
     style="fill:#000000;fill-opacity:1;stroke:#000000;stroke-width:5.47477913;stroke-linecap:round;stroke-linejoin:round;stroke-miterlimit:4;stroke-opacity:1;stroke-dasharray:none"
     d="m 65.992428,400.32411 25.875743,0.16938"
     id="path6346"
     inkscape:connector-curvature="0" />
  <path
     inkscape:connector-curvature="0"
     id="path6348"
     d="m 65.992428,418.68105 25.875743,0.16937"
     style="fill:#000000;fill-opacity:1;stroke:#000000;stroke-width:5.47477913;stroke-linecap:round;stroke-linejoin:round;stroke-miterlimit:4;stroke-opacity:1;stroke-dasharray:none"
     sodipodi:nodetypes="cc" />
</svg>

<svg xmlns="http://www.w3.org/2000/svg" xmlns:xlink="http://www.w3.org/1999/xlink" viewBox="0 0 580 580"><defs><filter id="1" x="-.073" width="1.147" y="-.515" height="2.031"><feGaussianBlur stdDeviation="7.92099"/></filter><linearGradient xlink:href="#0" id="4" x1="72.3" x2="92.22" gradientUnits="userSpaceOnUse"/><linearGradient xlink:href="#0" id="5" x1="67.913" x2="87.83" gradientUnits="userSpaceOnUse"/><linearGradient xlink:href="#0" id="3" x1="25.973" x2="304.02" gradientUnits="userSpaceOnUse"/><linearGradient id="0"><stop stop-color="#ff0"/><stop offset="1" stop-color="#ff0" stop-opacity="0"/></linearGradient><linearGradient xlink:href="#0" id="2" x1="281.97" x2="560.02" gradientUnits="userSpaceOnUse"/></defs><g stroke="#000"><g stroke-linecap="round"><g fill="none" stroke-linejoin="round" stroke-width="5.139"><path d="m80.05 411.96c0 .085 0-10.896 0-10.811 0 6.731-3.974 76.42-29.3 114.86"/><path d="m79.977 411.84c0 .085 0-10.896 0-10.811 0 6.731 3.974 76.42 29.3 114.86"/></g><g stroke-width="3.251"><path d="m86.21 454.02l-16.667 17.542" fill="url(#5)"/><path d="m73.926 454.02l16.667 17.542" fill="url(#4)"/></g><g fill="none" stroke-width="4"><path d="m72.829 471.51l26.09 27.459"/><path d="m87.22 471.51l-26.09 27.459"/></g></g><g fill-rule="evenodd" stroke-width="10"><path d="m294.4 90.81c-127.28 80.61-258.8-1.414-258.8-1.414" transform="matrix(.2433 0 0 .27663 8.873 375.28)" opacity=".938" fill="url(#3)" filter="url(#1)"/><path d="m550.4 92.81c-127.28 80.61-258.8-1.414-258.8-1.414" transform="matrix(.2433 0 0 .27663 8.873 375.28)" opacity=".938" fill="url(#2)" filter="url(#1)"/><path d="m294.4 130.81c-127.28 80.61-258.8-1.414-258.8-1.414" transform="matrix(.2433 0 0 .27663 8.873 375.28)" opacity=".938" fill="url(#3)" filter="url(#1)"/><path d="m550.4 132.81c-127.28 80.61-258.8-1.414-258.8-1.414" transform="matrix(.2433 0 0 .27663 8.873 375.28)" opacity=".938" fill="url(#2)" filter="url(#1)"/><path d="m294.4 170.81c-127.28 80.61-258.8-1.414-258.8-1.414" transform="matrix(.2433 0 0 .27663 8.873 375.28)" opacity=".938" fill="url(#3)" filter="url(#1)"/><path d="m550.4 172.81c-127.28 80.61-258.8-1.414-258.8-1.414" transform="matrix(.2433 0 0 .27663 8.873 375.28)" opacity=".938" fill="url(#2)" filter="url(#1)"/></g><g stroke-linejoin="round" stroke-linecap="round" stroke-width="5.475"><path d="m65.992 400.32l25.876.169"/><path d="m65.992 418.68l25.876.169"/></g></g></svg>
